X: 25561
T: Marino, The
R: waltz
M: 3/4
K: Amajor
|:a2e3c|G4c2|F4d2|E6|
D2E2F2|G2E3B|A2E2c2|B6|
a2e3c|G4g2|f2e3d|F4f2|
e2d2B2|G4c2|A6|1 A6:|2 A4E2||
|:E2F2G2|A2B2c2|c6|G6|
F6|d4F2|A6|G6|
D2E2F2|G2E2B2|A2E2e2|f4e2|
d2B2G2|E4c2|A6|A6:|

